Gurmukhi/0A0F.svg

<svg enable-background="new 0 0 336 592" viewBox="0 0 336 592" xmlns="http://www.w3.org/2000/svg"><path d="m144.122742 373.928589c-17.34594-12.600495-30.442826-28.230469-39.179436-47.483246-1.146233-2.526001-.563553-4.235718 1.02002-6.314087 11.772377-15.450867 26.574012-26.920624 44.506599-34.368866 2.422043-1.005981 4.81897-2.072479 8.311417-3.578247-11.588898-3.58609-21.59079-7.891663-29.920823-15.308441-12.150322-10.818207-19.333122-24.364548-22.132766-40.315537-.057289-.326431-.013497-.671615-.079277-.995376-1.936554-9.531037.315849-8.257034-9.631523-8.381317-4.830971-.060364-9.668686-.145462-14.493126.042663-3.011834.117432-4.614952-1.174667-5.550339-3.884201-1.24778-3.614486-2.69793-7.158584-3.984734-10.760223-1.787597-5.003281-.595047-6.698151 4.871216-6.772873 5.83033-.079697 11.66256-.019943 17.493965-.020523 39.653633-.003952 79.307274-.007752 118.960915-.011582 1.798111-.000167 3.596237-.00003 6.048172-.00003-3.039215-9.617218-7.360123-17.830124-11.790756-25.923523-4.868531-8.893387-9.96428-17.728973-18.186264-24.164337-6.469254-5.063507-13.713257-7.890427-21.958329-8.513596-9.313614-.703964-18.62474-.848007-27.953018-.84024-5.487671.004562-7.196762-1.652588-7.364426-7.101776-.13829-4.493813-.068771-8.9963.006409-13.493317.031693-1.895523.3582-3.878357 2.883087-3.864014 15.09842.085762 30.380066-1.54731 44.958557 4.032883 13.695191 5.242104 22.960297 15.44902 30.564744 27.556229 9.5139 15.147308 16.278594 31.633621 23.5457 47.869064 1.44078 3.218841 3.148422 4.610229 6.69075 4.545196 9.660248-.177337 19.329483.088273 28.987472-.142868 3.632416-.086929 5.530304 1.279664 6.617279 4.590378 1.140259 3.473068 2.684479 6.812393 3.858033 10.275925 1.646331 4.858826.502197 6.496551-4.60785 6.534729-9.996185.074676-20.000976.261673-29.986694-.067917-4.959976-.163727-6.645874 1.260422-6.571136 6.431503.286499 19.822678.129974 39.651932.113342 59.478714-.007446 8.881562-3.485886 12.284363-12.245438 12.393555-20.187835.251617-40.216354 1.568878-59.316406 9.050201-14.266068 5.587952-27.157242 13.210968-37.797531 24.440339-2.301468 2.428863-2.427597 4.11911-.432282 6.791656 14.606873 19.564423 33.883027 31.162384 58.361878 31.698395 17.732147.388244 33.474243-6.359863 46.379776-18.965363 5.395523-5.27008 6.69014-5.106201 11.132828 1.113037 2.222091 3.110657 4.115493 6.514679 6.677719 9.309113 3.284378 3.58197 3.026733 6.097595-.451538 9.529144-24.45427 24.126099-57.241272 29.687653-88.480469 16.72461-6.931961-2.876496-13.458298-6.562134-19.875717-11.135834m21.046951-104.519592c3.997818 1.097473 7.946579 2.443206 12.002899 3.244476 10.855789 2.144531 21.88971.955841 32.830811 1.524139 3.986084.207001 4.747268-1.240478 4.71347-4.801696-.146927-15.475037-.242706-30.955735.049851-46.426697.090561-4.789536-1.648316-5.893296-6.05568-5.861145-23.13031.16864-46.262405.083328-69.39389.097442-7.223618.004395-7.880646.681-6.841217 7.659821 3.017715 20.261154 12.506271 35.880035 32.693756 44.56366z"/></svg>

<svg version="1.1" id="Layer_1" xmlns="http://www.w3.org/2000/svg" xmlns:xlink="http://www.w3.org/1999/xlink" x="0px" y="0px"
	 width="100%" viewBox="0 0 336 592" enable-background="new 0 0 336 592" xml:space="preserve">
<path fill="#000000" opacity="1.000000" stroke="none" 
	d="
M144.122742,373.928589 
	C126.776802,361.328094 113.679916,345.698120 104.943306,326.445343 
	C103.797073,323.919342 104.379753,322.209625 105.963326,320.131256 
	C117.735703,304.680389 132.537338,293.210632 150.469925,285.762390 
	C152.891968,284.756409 155.288895,283.689911 158.781342,282.184143 
	C147.192444,278.598053 137.190552,274.292480 128.860519,266.875702 
	C116.710197,256.057495 109.527397,242.511154 106.727753,226.560165 
	C106.670464,226.233734 106.714256,225.888550 106.648476,225.564789 
	C104.711922,216.033752 106.964325,217.307755 97.016953,217.183472 
	C92.185982,217.123108 87.348267,217.038010 82.523827,217.226135 
	C79.511993,217.343567 77.908875,216.051468 76.973488,213.341934 
	C75.725708,209.727448 74.275558,206.183350 72.988754,202.581711 
	C71.201157,197.578430 72.393707,195.883560 77.859970,195.808838 
	C83.690300,195.729141 89.522530,195.788895 95.353935,195.788315 
	C135.007568,195.784363 174.661209,195.780563 214.314850,195.776733 
	C216.112961,195.776566 217.911087,195.776703 220.363022,195.776703 
	C217.323807,186.159485 213.002899,177.946579 208.572266,169.853180 
	C203.703735,160.959793 198.607986,152.124207 190.386002,145.688843 
	C183.916748,140.625336 176.672745,137.798416 168.427673,137.175247 
	C159.114059,136.471283 149.802933,136.327240 140.474655,136.335007 
	C134.986984,136.339569 133.277893,134.682419 133.110229,129.233231 
	C132.971939,124.739418 133.041458,120.236931 133.116638,115.739914 
	C133.148331,113.844391 133.474838,111.861557 135.999725,111.875900 
	C151.098145,111.961662 166.379791,110.328590 180.958282,115.908783 
	C194.653473,121.150887 203.918579,131.357803 211.523026,143.465012 
	C221.036926,158.612320 227.801620,175.098633 235.068726,191.334076 
	C236.509506,194.552917 238.217148,195.944305 241.759476,195.879272 
	C251.419724,195.701935 261.088959,195.967545 270.746948,195.736404 
	C274.379364,195.649475 276.277252,197.016068 277.364227,200.326782 
	C278.504486,203.799850 280.048706,207.139175 281.222260,210.602707 
	C282.868591,215.461533 281.724457,217.099258 276.614410,217.137436 
	C266.618225,217.212112 256.613434,217.399109 246.627716,217.069519 
	C241.667740,216.905792 239.981842,218.329941 240.056580,223.501022 
	C240.343079,243.323700 240.186554,263.152954 240.169922,282.979736 
	C240.162476,291.861298 236.684036,295.264099 227.924484,295.373291 
	C207.736649,295.624908 187.708130,296.942169 168.608078,304.423492 
	C154.342010,310.011444 141.450836,317.634460 130.810547,328.863831 
	C128.509079,331.292694 128.382950,332.982941 130.378265,335.655487 
	C144.985138,355.219910 164.261292,366.817871 188.740143,367.353882 
	C206.472290,367.742126 222.214386,360.994019 235.119919,348.388519 
	C240.515442,343.118439 241.810059,343.282318 246.252747,349.501556 
	C248.474838,352.612213 250.368240,356.016235 252.930466,358.810669 
	C256.214844,362.392639 255.957199,364.908264 252.478928,368.339813 
	C228.024658,392.465912 195.237656,398.027466 163.998459,385.064423 
	C157.066498,382.187927 150.540161,378.502289 144.122742,373.928589 
M165.169693,269.408997 
	C169.167511,270.506470 173.116272,271.852203 177.172592,272.653473 
	C188.028381,274.798004 199.062302,273.609314 210.003403,274.177612 
	C213.989487,274.384613 214.750671,272.937134 214.716873,269.375916 
	C214.569946,253.900879 214.474167,238.420181 214.766724,222.949219 
	C214.857285,218.159683 213.118408,217.055923 208.711044,217.088074 
	C185.580734,217.256714 162.448639,217.171402 139.317154,217.185516 
	C132.093536,217.189911 131.436508,217.866516 132.475937,224.845337 
	C135.493652,245.106491 144.982208,260.725372 165.169693,269.408997 
z"/>
</svg>
